X:6
T:John Ryan's Polka
R:polka
S:Session at Fleadh Ceol in Sligo, 1990
O:Ireland
M:2/4
L:1/8
K:Bm
"D" dd "G" B/c/d/B/ | "D" AF    AF | "D" dd "G" B/c/d/B/ | "A" AF       ED | 
"D" dd "G" B/c/d/B/ | "D" AF Ad/e/ | "D" fd       "A" ec |1 "D" d2      d2 :|2 "D" d2 dd/e/ ||
"D" fd        de/f/ | "G" gf ed/e/ | "D" fd           Ac | "D"  fd/f/ aa/g/ | 
"D" fd        de/f/ | "G" gf ed/e/ | "D" fd       "A" ec |1 "D" d2   dd/e/ :|2 "D" d2    d2 |]
